icons/tokens/0x408e41876cCCDC0F92210600ef50372656052a38/logo.svg

<svg width="32" height="32" viewBox="0 0 32 32" fill="none" xmlns="http://www.w3.org/2000/svg">
<g id="REN token">
<circle id="Oval" cx="16" cy="16" r="16" fill="white"/>
<g id="REN logo">
<path id="Path" d="M8.93031 9.35526L10.6353 8.37632L10.8646 8.77056L17.151 5.1456L16.6912 4.8814L16.2294 4.61209L16 4.48L5.76001 10.3956V10.6598L8.69991 8.95897L8.93031 9.35526V9.35526Z" fill="black"/>
<path id="Path_2" d="M8.93031 13.0795L13.8568 10.2328L14.0872 10.6332L20.3725 7.0062L19.9127 6.73791L19.4519 6.47372L19.2215 6.34367L5.76001 14.1158V14.38L8.69991 12.6792L8.93031 13.0795V13.0795Z" fill="black"/>
<path id="Path_3" d="M8.93031 14.9412L15.4675 11.1667L15.699 11.563L21.9822 7.9319L21.5235 7.67181L21.0637 7.4025L20.8323 7.2704L5.76001 15.9724V16.2406L8.69991 14.5428L8.93031 14.9412V14.9412Z" fill="black"/>
<path id="Path_4" d="M8.93031 16.7997L17.1244 12.0699L17.3568 12.4662L23.594 8.8658L23.1352 8.59648L22.6734 8.33229L22.444 8.2002L5.76001 17.836V18.1002L8.69991 16.3994L8.93031 16.7997V16.7997Z" fill="black"/>
<path id="Path_5" d="M8.93031 18.6573L18.7361 12.9976L18.9665 13.398L25.2047 9.7925L24.745 9.53036L24.2852 9.26207L24.0538 9.12997L5.76001 19.6925V19.9567L8.69991 18.26L8.93031 18.6573V18.6573Z" fill="black"/>
<path id="Path_6" d="M25.8959 10.1939L25.6655 10.0598L5.76001 21.5562V21.8204L8.69991 20.1236L8.93031 20.5199L18.7361 14.8613L18.9665 15.2576L26.24 11.0602V10.5277V10.3956L25.8959 10.1939V10.1939Z" fill="black"/>
<path id="Path_7" d="M7.02057 22.9489L8.67023 21.9976L8.89961 22.3949L18.689 16.7434L18.9184 17.1448L26.24 12.9167V12.3843V11.8508V11.5866L6.79529 22.8168L7.02057 22.9489V22.9489Z" fill="black"/>
<path id="Path_8" d="M18.689 18.6071L18.9184 19.0085L26.24 14.7804V14.2479V13.7144V13.4502L8.40604 23.7466L8.63746 23.8787L10.3107 22.91L10.5421 23.3114" fill="black"/>
<path id="Path_9" d="M10.2472 24.8105L11.9224 23.8397L12.1518 24.2401L18.689 20.4636L18.9184 20.865L26.24 16.6379V16.1044V15.5761V15.3088L10.0137 24.6743L10.2472 24.8105V24.8105Z" fill="black"/>
<path id="Path_10" d="M11.8569 25.7403L13.5322 24.7736L13.7636 25.1699L18.689 22.3273L18.9184 22.7236L26.24 18.4965V17.9681V17.4346V17.1704L11.6275 25.6082L11.8569 25.7403V25.7403Z" fill="black"/>
<path id="Path_11" d="M13.2393 26.537L13.4697 26.6691L15.1481 25.7014L15.3744 26.1018L18.689 24.1848L18.9184 24.5852L26.24 20.3581V19.8246V19.2922V19.0269L13.2393 26.537V26.537Z" fill="black"/>
<path id="Path_12" d="M15.0794 27.6029L16.7537 26.6301L16.9841 27.0316L18.689 26.0434L18.9184 26.4438L26.24 22.2208V21.6883V21.1548V20.8906L14.849 27.4708L15.0794 27.6029V27.6029Z" fill="black"/>
<path id="Path_13" d="M18.7628 6.07437L18.3009 5.81017V5.81017L17.8422 5.54598L17.6118 5.40979L5.76001 12.2522V12.5164L8.69991 10.8216L8.93031 11.2159L12.245 9.30304L12.4815 9.70445L18.7628 6.07437V6.07437Z" fill="black"/>
</g>
</g>
</svg>

<svg width="32" height="32" fill="none" xmlns="http://www.w3.org/2000/svg"><circle cx="16" cy="16" r="16" fill="#fff"/><g fill="#000"><path d="M8.93 9.355l1.705-.979.23.395 6.286-3.625-.46-.265-.462-.269L16 4.48 5.76 10.396v.264L8.7 8.959l.23.396zM8.93 13.08l4.927-2.847.23.4 6.285-3.627-.46-.268-.46-.264-.23-.13L5.76 14.116v.264l2.94-1.7.23.4zM8.93 14.941l6.537-3.774.232.396 6.283-3.631-.459-.26-.46-.27-.23-.132L5.76 15.972v.269l2.94-1.698.23.398zM8.93 16.8l8.194-4.73.233.396 6.237-3.6-.459-.27-.462-.264-.229-.132L5.76 17.836v.264l2.94-1.7.23.4zM8.93 18.657l9.806-5.66.23.401 6.239-3.605-.46-.263-.46-.268-.231-.132L5.76 19.692v.265L8.7 18.26l.23.397zM25.896 10.194l-.23-.134L5.76 21.556v.264l2.94-1.696.23.396 9.806-5.659.23.397 7.274-4.198v-.664l-.344-.202zM7.02 22.949l1.65-.951.23.397 9.789-5.652.23.402 7.321-4.228v-1.33L6.795 22.817l.226.132zM18.689 18.607l.23.402 7.321-4.229v-1.33L8.406 23.747l.231.132 1.674-.969.231.401M10.247 24.81l1.675-.97.23.4 6.537-3.776.23.401 7.321-4.227V15.309l-16.226 9.365.233.137zM11.857 25.74l1.675-.966.232.396 4.925-2.843.23.397 7.321-4.227V17.17l-14.612 8.438.229.132zM13.24 26.537l.23.132 1.678-.968.226.4 3.315-1.916.23.4 7.321-4.227v-1.331l-13 7.51zM15.08 27.603l1.674-.973.23.402 1.705-.989.23.4 7.321-4.222v-1.33l-11.391 6.58.23.132zM18.763 6.074L18.3 5.81l-.459-.264-.23-.136L5.76 12.252v.264l2.94-1.694.23.394 3.315-1.913.237.401 6.28-3.63z"/></g></svg>
